**kern	**kern
*staff1	*staff1
=1-	=1-
*clefG2	*clefG2
*k[]	*k[]
*F:	*F:
*M4/4	*M4/4
1r	.
=2	=2
1r	.
=3	=3
1r	.
=4	=4
2r	1F:maj
4r	.
8r	.
8F/	.
=5	=5
8B-/L	.
8d/	.
8c/	.
8B-/J	.
8e-/L	.
8c#/	.
8d/	.
8f/J	.
=6	=6
4r	.
8r	.
8e-/	.
8r	.
8f/	.
4e-/	.
=7	=7
8r	.
8d/L	.
8e-/	.
8d/J	.
8c/L	.
8A/	.
8B-/	.
8d/J	.
=8	=8
8c/L	.
8G/	.
8B-/	.
8A/J	.
4r	.
8r	.
[8B-/	.
=9	=9
4B-/]	.
8G/L	.
8B-/J	.
8d/L	.
8B-/J	.
8r	.
[8e/	.
=10	=10
8e/L]	.
[8e-/	.
8e-/]	.
[8G-/J	.
8G-/L]	.
8B-/	.
8c/	.
8d/J	.
=11	=11
4f/	.
8r	.
8B/	.
8r	.
4a-/	.
8f#/	.
=12	=12
8g/L	.
8e-/	.
8B-/	.
8G/J	.
8d/L	.
8f/J	.
8r	.
8F/	.
=13	=13
12e-/L	.
12f/	.
12e-/J	.
8d/L	.
8f/J	.
8r	.
8d/L	.
8e-/	.
8G/J	.
=14:|!	=14:|!
8c/L	.
8G/	.
8B-/	.
8c/J	.
4r	.
8r	.
[8f#/	.
=15	=15
4f#/]	.
8g/L	.
8g#/J	.
8a/L	.
8f#/	.
8gn/	.
8a/J	.
=16||	=16||
8f#/L	.
8d/J	.
4r	.
4r	.
8r	.
8e/	.
=17	=17
8f/L	.
8e/	.
8d/	.
8B/J	.
8e/L	.
8d/	.
8B/	.
8A/J	.
=18	=18
4r	.
8r	.
[8a/	.
8a/]	.
4a/	.
[8a/	.
=19	=19
8a/L]	.
8g/	.
8e/	.
8d/J	.
2r	.
=20	=20
1r	.
=21	=21
1r	.
=22	=22
1r	.
=23	=23
1r	.
=24	=24
1r	.
=25	=25
1r	.
=26	=26
1r	.
=27	=27
1r	.
=28	=28
1r	.
=29	=29
1r	.
=30	=30
1r	.
=31	=31
1r	.
=32	=32
1r	.
=33	=33
1r	.
=34	=34
1r	.
=35	=35
1r	.
=36	=36
1r	.
=37	=37
1r	.
=38	=38
1r	.
=39	=39
1r	.
=40	=40
1r	.
=41	=41
1r	.
=42	=42
1r	.
=43	=43
1r	.
=44	=44
1r	.
=45	=45
1r	.
=46	=46
1r	.
=47	=47
1r	.
=48	=48
1r	.
=49	=49
1r	.
=50	=50
1r	.
=51	=51
1r	.
=52	=52
1r	.
=53	=53
1r	.
=54	=54
1r	.
=55	=55
1r	.
=56	=56
1r	.
=57	=57
1r	.
=58	=58
1r	.
=59	=59
1r	.
=60	=60
1r	.
=61	=61
1r	.
=62	=62
1r	.
=63	=63
1r	.
=64	=64
1r	.
=65	=65
1r	.
=66	=66
1r	.
==	==
*-	*-
